icons/src/svg/image_add.svg

<svg width="32" height="32" viewBox="0 0 32 32" fill="none" xmlns="http://www.w3.org/2000/svg">
<path fill-rule="evenodd" clip-rule="evenodd" d="M26 5C26.5523 5 27 5.44772 27 6V8H29C29.5523 8 30 8.44772 30 9C30 9.55228 29.5523 10 29 10H27V12C27 12.5523 26.5523 13 26 13C25.4477 13 25 12.5523 25 12V10H23C22.4477 10 22 9.55228 22 9C22 8.44772 22.4477 8 23 8H25V6C25 5.44772 25.4477 5 26 5Z" fill="#0D0F13"/>
<path fill-rule="evenodd" clip-rule="evenodd" d="M2 10C2 8.89543 2.89543 8 4 8H19C19.5523 8 20 8.44772 20 9C20 9.55228 19.5523 10 19 10H4V22.5858L9.29289 17.2929C9.68342 16.9024 10.3166 16.9024 10.7071 17.2929L13 19.5858L18.2929 14.2929C18.6834 13.9024 19.3166 13.9024 19.7071 14.2929L25 19.5858V16C25 15.4477 25.4477 15 26 15C26.5523 15 27 15.4477 27 16V23.9999C27 25.1045 26.1046 25.9999 25 25.9999H4C2.89543 25.9999 2 25.1045 2 23.9999V10ZM25 22.4142L19 16.4142L13.7071 21.7071C13.3166 22.0976 12.6834 22.0976 12.2929 21.7071L10 19.4142L5.41431 23.9999H25V22.4142Z" fill="#0D0F13"/>
</svg>

<svg fill="none" xmlns="http://www.w3.org/2000/svg" viewBox="0 0 32 32">
  <path fill-rule="evenodd" clip-rule="evenodd" d="M26 5a1 1 0 0 1 1 1v2h2a1 1 0 1 1 0 2h-2v2a1 1 0 1 1-2 0v-2h-2a1 1 0 1 1 0-2h2V6a1 1 0 0 1 1-1ZM2 10a2 2 0 0 1 2-2h15a1 1 0 1 1 0 2H4v12.586l5.293-5.293a1 1 0 0 1 1.414 0L13 19.586l5.293-5.293a1 1 0 0 1 1.414 0L25 19.586V16a1 1 0 1 1 2 0v8a2 2 0 0 1-2 2H4a2 2 0 0 1-2-2V10Zm23 12.414-6-6-5.293 5.293a1 1 0 0 1-1.414 0L10 19.414 5.414 24H25v-1.586Z" fill="currentColor"/>
</svg>
